X:182
T:Gospel Ship
C: arranged by Lee Marcus
N:Transcribed by Lee Marcus
R:bluegrass
L:1/8
Q:1/4=240
M:4/4
K:A
z2 B/c/B AB cd | e2 c/e/e ef ec | eA c/e/e e2 ef | =gf ef ed (3BcB | AF EC EE FE | 
A2 EF AB ce | f2 e2 =cB AF | GB =GF EC B,C | E2 EF AB cd | e2 c/e/e ef ec | e2 c/e/e ec ef | 
=gf ed cB AF | E2 B/c/B AB ce | a2 {b}c'b a2 e'c' | d'g ed cA BG | AF EB, CE =CB, | 
A,B, CE AB ce | a8 | 


